;FLAVOR:Marlin
;TIME:2636
;Filament used: 0.899809m
;Layer height: 0.12
;MINX:91.45
;MINY:96.208
;MINZ:0.12
;MAXX:130.819
;MAXY:130.828
;MAXZ:16.32
;Generated with Cura_SteamEngine 4.13.1
M140 S50
M105
M190 S50
M104 S200
M105
M109 S200
M82 ;absolute extrusion mode
; Ender 3 Custom Start G-code
G92 E0 ; Reset Extruder
G28 ; Home all axes
G1 Z2.0 F3000 ; Move Z Axis up little to prevent scratching of Heat Bed
G1 X0.1 Y20 Z0.3 F5000.0 ; Move to start position
G1 X0.1 Y200.0 Z0.3 F1500.0 E15 ; Draw the first line
G1 X0.4 Y200.0 Z0.3 F5000.0 ; Move to side a little
G1 X0.4 Y20 Z0.3 F1500.0 E30 ; Draw the second line
G92 E0 ; Reset Extruder
G1 Z2.0 F3000 ; Move Z Axis up little to prevent scratching of Heat Bed
G1 X5 Y20 Z0.3 F5000.0 ; Move over to prevent blob squish
G92 E0
G92 E0
G1 F2700 E-5
;LAYER_COUNT:136
;LAYER:0
M107
G0 F6000 X95.553 Y99.909 Z0.12
;TYPE:SKIRT
G1 F2700 E0
G1 F1200 X96.153 Y99.354 E0.01631
G1 X96.325 Y99.211 E0.02077
G1 X96.793 Y98.852 E0.03255
G1 X97.253 Y98.525 E0.04381
G1 X97.654 Y98.258 E0.05342
G1 X97.876 Y98.12 E0.05864
G1 X98.447 Y97.797 E0.07173
G1 X98.919 Y97.556 E0.08231
G1 X99.381 Y97.339 E0.09249
G1 X99.655 Y97.221 E0.09845
G1 X100.211 Y97.006 E0.11034
G1 X100.675 Y96.847 E0.12013
G1 X101.242 Y96.677 E0.13194
G1 X101.569 Y96.592 E0.13869
G1 X102.101 Y96.473 E0.14956
G1 X102.546 Y96.39 E0.1586
G1 X103.149 Y96.302 E0.17076
G1 X103.524 Y96.262 E0.17829
G1 X104.067 Y96.223 E0.18915
G1 X104.479 Y96.208 E0.19738
G1 X105.047 Y96.208 E0.20871
G1 X105.459 Y96.223 E0.21694
G1 X106.002 Y96.262 E0.2278
G1 X106.377 Y96.302 E0.23533
G1 X106.967 Y96.388 E0.24723
G1 X107.504 Y96.489 E0.25813
G1 X107.978 Y96.598 E0.26784
G1 X108.305 Y96.684 E0.27459
G1 X108.835 Y96.843 E0.28563
G1 X109.299 Y97.001 E0.29541
G1 X109.829 Y97.204 E0.30674
G1 X110.105 Y97.321 E0.31272
G1 X110.649 Y97.576 E0.32471
G1 X111.118 Y97.819 E0.33525
G1 X111.556 Y98.064 E0.34526
G1 X111.78 Y98.199 E0.35048
G1 X112.305 Y98.545 E0.36303
G1 X112.763 Y98.874 E0.37428
G1 X113.202 Y99.214 E0.38537
G1 X113.375 Y99.358 E0.38986
G1 X113.802 Y99.741 E0.4013
G1 X114.235 Y100.159 E0.41331
G1 X114.919 Y100.911 E0.4336
G1 X115.436 Y101.56 E0.45016
G1 X116.089 Y102.518 E0.4733
G1 X116.501 Y103.231 E0.48973
G1 X116.96 Y104.181 E0.51078
G1 X117.242 Y104.171 E0.51642
G1 X117.77 Y104.171 E0.52695
G1 X118.184 Y104.185 E0.53522
G1 X118.795 Y104.23 E0.54745
G1 X119.167 Y104.272 E0.55492
G1 X119.685 Y104.348 E0.56536
G1 X120.171 Y104.438 E0.57523
G1 X120.247 Y104.453 E0.57677
G1 X120.737 Y104.566 E0.58681
G1 X121.065 Y104.653 E0.59358
G1 X121.551 Y104.799 E0.60371
G1 X122.015 Y104.955 E0.61348
G1 X122.649 Y105.199 E0.62703
G1 X122.924 Y105.319 E0.63302
G1 X123.346 Y105.518 E0.64233
G1 X123.815 Y105.757 E0.65284
G1 X124.386 Y106.079 E0.66592
G1 X124.61 Y106.218 E0.67118
G1 X125.039 Y106.504 E0.68147
G1 X125.497 Y106.832 E0.69271
G1 X125.907 Y107.148 E0.70304
G1 X126.081 Y107.291 E0.70753
G1 X126.56 Y107.718 E0.72034
G1 X126.992 Y108.137 E0.73235
G1 X127.654 Y108.866 E0.752
G1 X128.172 Y109.514 E0.76856
G1 X128.837 Y110.489 E0.79211
G1 X129.248 Y111.202 E0.80853
G1 X129.75 Y112.245 E0.83163
G1 X130.054 Y113.019 E0.84823
G1 X130.397 Y114.129 E0.87141
G1 X130.581 Y114.932 E0.88785
G1 X130.757 Y116.099 E0.9114
G1 X130.818 Y116.924 E0.92791
G1 X130.819 Y118.053 E0.95044
G1 X130.763 Y118.84 E0.96619
G1 X130.604 Y119.947 E0.98851
G1 X130.436 Y120.718 E1.00425
G1 X130.126 Y121.776 E1.02625
G1 X129.85 Y122.518 E1.04205
G1 X129.537 Y123.244 E1.05783
G1 X129.143 Y123.949 E1.07395
G1 X128.97 Y124.298 E1.08172
G1 X128.55 Y124.967 E1.09748
G1 X128.139 Y125.494 E1.11082
G1 X127.979 Y125.738 E1.11664
G1 X127.48 Y126.35 E1.1324
G1 X126.922 Y126.909 E1.14816
G1 X126.705 Y127.137 E1.15445
G1 X126.116 Y127.681 E1.17045
G1 X125.944 Y127.824 E1.17491
G1 X125.485 Y128.177 E1.18647
G1 X125.025 Y128.505 E1.19774
G1 X124.615 Y128.778 E1.20757
G1 X124.393 Y128.916 E1.21279
G1 X123.816 Y129.242 E1.22601
G1 X123.345 Y129.482 E1.23656
G1 X122.902 Y129.691 E1.24634
G1 X122.627 Y129.81 E1.25232
G1 X122.048 Y130.033 E1.2647
G1 X121.585 Y130.191 E1.27446
G1 X121.044 Y130.354 E1.28574
G1 X120.716 Y130.44 E1.2925
G1 X120.168 Y130.563 E1.30371
G1 X119.723 Y130.646 E1.31274
G1 X119.122 Y130.734 E1.32487
G1 X118.748 Y130.774 E1.33237
G1 X118.202 Y130.813 E1.3433
G1 X117.789 Y130.828 E1.35154
G1 X117.222 Y130.828 E1.36286
G1 X116.81 Y130.813 E1.37109
G1 X116.267 Y130.774 E1.38195
G1 X115.892 Y130.734 E1.38948
G1 X115.298 Y130.647 E1.40146
G1 X114.766 Y130.547 E1.41226
G1 X114.276 Y130.434 E1.42229
G1 X113.948 Y130.347 E1.42907
G1 X113.448 Y130.197 E1.43948
G1 X112.984 Y130.04 E1.44926
G1 X112.427 Y129.827 E1.46116
G1 X112.15 Y129.709 E1.46717
G1 X111.624 Y129.462 E1.47876
G1 X111.156 Y129.22 E1.48928
G1 X110.713 Y128.972 E1.49941
G1 X110.489 Y128.837 E1.50463
G1 X109.946 Y128.478 E1.51762
G1 X109.488 Y128.147 E1.5289
G1 X109.084 Y127.834 E1.5391
G1 X108.91 Y127.69 E1.5436
G1 X108.459 Y127.286 E1.55569
G1 X108.026 Y126.867 E1.56771
G1 X107.356 Y126.13 E1.58759
G1 X106.84 Y125.484 E1.60409
G1 X106.176 Y124.511 E1.62759
G1 X105.765 Y123.798 E1.64402
G1 X105.31 Y122.854 E1.66493
G1 X105.046 Y122.864 E1.6702
G1 X104.48 Y122.864 E1.6815
G1 X104.067 Y122.849 E1.68974
G1 X103.498 Y122.807 E1.70113
G1 X103.125 Y122.766 E1.70862
G1 X102.563 Y122.684 E1.71995
G1 X102.118 Y122.602 E1.72898
G1 X101.527 Y122.469 E1.74107
G1 X101.2 Y122.382 E1.74782
G1 X100.71 Y122.234 E1.75804
G1 X100.245 Y122.077 E1.76783
G1 X99.642 Y121.846 E1.78072
G1 X99.367 Y121.727 E1.7867
G1 X98.924 Y121.518 E1.79647
G1 X98.453 Y121.278 E1.80702
G1 X97.876 Y120.952 E1.82025
G1 X97.654 Y120.814 E1.82547
G1 X97.228 Y120.53 E1.83568
G1 X96.769 Y120.201 E1.84695
G1 X96.361 Y119.887 E1.85723
G1 X96.187 Y119.744 E1.86172
G1 X95.708 Y119.317 E1.87453
G1 X95.275 Y118.897 E1.88657
G1 X94.607 Y118.16 E1.90642
G1 X94.092 Y117.514 E1.9229
G1 X93.437 Y116.554 E1.94609
G1 X93.025 Y115.841 E1.96253
G1 X92.519 Y114.791 E1.98579
G1 X92.215 Y114.017 E2.00238
G1 X91.87 Y112.898 E2.02575
G1 X91.687 Y112.095 E2.04219
G1 X91.514 Y110.947 E2.06535
G1 X91.452 Y110.122 E2.08186
G1 X91.45 Y108.983 E2.10459
G1 X91.506 Y108.196 E2.12034
G1 X91.664 Y107.091 E2.14262
G1 X91.832 Y106.319 E2.15838
G1 X92.151 Y105.238 E2.18087
G1 X92.429 Y104.497 E2.19667
G1 X92.743 Y103.773 E2.21242
G1 X93.113 Y103.114 E2.2275
G1 X93.299 Y102.738 E2.23587
G1 X93.719 Y102.069 E2.25163
G1 X94.141 Y101.526 E2.26536
G1 X94.306 Y101.278 E2.2713
G1 X94.807 Y100.667 E2.28707
G1 X95.367 Y100.11 E2.30283
G1 X95.553 Y99.909 E2.3083
G0 F6000 X95.868 Y100.159
G1 F1200 X96.409 Y99.662 E2.32296
G1 X96.581 Y99.519 E2.32742
G1 X97.024 Y99.178 E2.33858
G1 X97.484 Y98.851 E2.34984
G1 X97.865 Y98.597 E2.35898
G1 X98.087 Y98.459 E2.3642
G1 X98.629 Y98.153 E2.37662
G1 X99.101 Y97.912 E2.38719
G1 X99.539 Y97.706 E2.39685
G1 X99.813 Y97.588 E2.4028
G1 X100.341 Y97.385 E2.41409
G1 X100.805 Y97.226 E2.42388
G1 X101.342 Y97.064 E2.43508
G1 X101.669 Y96.979 E2.44182
G1 X102.174 Y96.866 E2.45214
G1 X102.619 Y96.783 E2.46118
G1 X103.191 Y96.7 E2.47271
G1 X103.566 Y96.66 E2.48024
G1 X104.082 Y96.623 E2.49056
G1 X104.494 Y96.608 E2.49879
G1 X105.032 Y96.608 E2.50953
G1 X105.444 Y96.623 E2.51775
G1 X105.96 Y96.66 E2.52808
G1 X106.335 Y96.7 E2.5356
G1 X106.895 Y96.781 E2.5469
G1 X107.427 Y96.881 E2.5577
G1 X107.876 Y96.984 E2.56689
G1 X108.203 Y97.07 E2.57364
G1 X108.706 Y97.222 E2.58412
G1 X109.17 Y97.38 E2.59391
G1 X109.673 Y97.572 E2.60465
G1 X109.949 Y97.689 E2.61063
G1 X110.465 Y97.932 E2.62202
G1 X110.934 Y98.175 E2.63256
G1 X111.35 Y98.407 E2.64206
G1 X111.574 Y98.542 E2.64728
G1 X112.071 Y98.87 E2.65916
G1 X112.529 Y99.199 E2.67042
G1 X112.946 Y99.521 E2.68093
G1 X113.119 Y99.665 E2.68542
G1 X113.525 Y100.029 E2.69631
G1 X113.958 Y100.447 E2.70832
G1 X114.606 Y101.16 E2.72754
G1 X115.123 Y101.809 E2.7441
G1 X115.742 Y102.718 E2.76605
G1 X116.154 Y103.431 E2.78248
G1 X116.631 Y104.417 E2.80434
G1 X116.701 Y104.595 E2.80816
G1 X116.842 Y104.585 E2.81098
G1 X117.255 Y104.571 E2.81922
G1 X117.756 Y104.571 E2.82922
G1 X118.17 Y104.585 E2.83749
G1 X118.75 Y104.628 E2.84909
G1 X119.122 Y104.67 E2.85657
G1 X119.614 Y104.742 E2.86649
G1 X120.094 Y104.83 E2.87623
G1 X120.17 Y104.845 E2.87777
G1 X120.634 Y104.952 E2.88728
G1 X120.962 Y105.039 E2.89405
G1 X121.423 Y105.178 E2.90366
G1 X121.887 Y105.334 E2.91343
G1 X122.489 Y105.566 E2.9263
G1 X122.764 Y105.686 E2.93229
G1 X123.164 Y105.875 E2.94112
G1 X123.633 Y106.114 E2.95162
G1 X124.175 Y106.419 E2.96403
G1 X124.399 Y106.558 E2.96929
G1 X124.806 Y106.83 E2.97906
G1 X125.264 Y107.158 E2.9903
G1 X125.653 Y107.457 E3.0001
G1 X125.827 Y107.6 E3.00459
G1 X126.281 Y108.005 E3.01673
G1 X126.713 Y108.424 E3.02874
G1 X127.341 Y109.115 E3.04737
G1 X127.859 Y109.763 E3.06393
G1 X128.49 Y110.688 E3.08628
G1 X128.901 Y111.401 E3.1027
G1 X129.378 Y112.392 E3.12465
G1 X129.682 Y113.166 E3.14124
G1 X130.007 Y114.218 E3.16321
G1 X130.191 Y115.021 E3.17965
G1 X130.358 Y116.128 E3.202
G1 X130.419 Y116.953 E3.2185
G1 X130.42 Y118.024 E3.23988
G1 X130.364 Y118.811 E3.25562
G1 X130.213 Y119.861 E3.27679
G1 X130.045 Y120.632 E3.29254
G1 X129.751 Y121.637 E3.31344
G1 X129.475 Y122.379 E3.32923
G1 X129.169 Y123.085 E3.34459
G1 X128.793 Y123.755 E3.35992
G1 X128.601 Y124.138 E3.36847
G1 X128.188 Y124.787 E3.38382
G1 X127.826 Y125.243 E3.39544
G1 X127.633 Y125.534 E3.40241
G1 X127.143 Y126.127 E3.41776
G1 X126.594 Y126.666 E3.43312
G1 X126.571 Y126.685 E3.43371
G1 X126.391 Y126.886 E3.4391
G1 X125.86 Y127.373 E3.45347
G1 X125.688 Y127.516 E3.45794
G1 X125.253 Y127.851 E3.46889
G1 X124.793 Y128.179 E3.48017
G1 X124.404 Y128.439 E3.48951
G1 X124.182 Y128.577 E3.49472
G1 X123.635 Y128.885 E3.50725
G1 X123.164 Y129.125 E3.5178
G1 X122.743 Y129.323 E3.52708
G1 X122.468 Y129.442 E3.53306
G1 X121.919 Y129.654 E3.54481
G1 X121.456 Y129.812 E3.55457
G1 X120.943 Y129.967 E3.56526
G1 X120.615 Y130.053 E3.57203
G1 X120.095 Y130.17 E3.58267
G1 X119.65 Y130.253 E3.5917
G1 X119.08 Y130.336 E3.6032
G1 X118.706 Y130.376 E3.6107
G1 X118.188 Y130.413 E3.62107
G1 X117.775 Y130.428 E3.62931
G1 X117.237 Y130.428 E3.64005
G1 X116.825 Y130.413 E3.64828
G1 X116.309 Y130.376 E3.6586
G1 X115.934 Y130.336 E3.66613
G1 X115.371 Y130.254 E3.67748
G1 X114.843 Y130.155 E3.6882
G1 X114.379 Y130.048 E3.6977
G1 X114.051 Y129.961 E3.70448
G1 X113.576 Y129.818 E3.71438
G1 X113.112 Y129.661 E3.72415
G1 X112.584 Y129.459 E3.73543
G1 X112.307 Y129.341 E3.74144
G1 X111.808 Y129.106 E3.75245
G1 X111.34 Y128.864 E3.76296
G1 X110.919 Y128.629 E3.77258
G1 X110.695 Y128.494 E3.7778
G1 X110.18 Y128.154 E3.79012
G1 X109.722 Y127.823 E3.8014
G1 X109.339 Y127.526 E3.81107
G1 X109.165 Y127.382 E3.81557
G1 X108.737 Y126.999 E3.82704
G1 X108.304 Y126.58 E3.83906
G1 X107.668 Y125.88 E3.85793
G1 X107.152 Y125.234 E3.87443
G1 X106.523 Y124.312 E3.89671
G1 X106.112 Y123.599 E3.91313
G1 X105.642 Y122.627 E3.93468
G1 X105.568 Y122.44 E3.93869
G1 X105.445 Y122.449 E3.94115
G1 X105.032 Y122.464 E3.9494
G1 X104.494 Y122.464 E3.96013
G1 X104.081 Y122.449 E3.96838
G1 X103.541 Y122.41 E3.97919
G1 X103.168 Y122.369 E3.98667
G1 X102.636 Y122.29 E3.99741
G1 X102.191 Y122.208 E4.00644
G1 X101.629 Y122.082 E4.01793
G1 X101.302 Y121.995 E4.02468
G1 X100.838 Y121.855 E4.03436
G1 X100.373 Y121.698 E4.04415
G1 X99.801 Y121.478 E4.05638
G1 X99.526 Y121.359 E4.06236
G1 X99.105 Y121.161 E4.07164
G1 X98.634 Y120.921 E4.08219
G1 X98.087 Y120.613 E4.09472
G1 X97.865 Y120.475 E4.09994
G1 X97.461 Y120.205 E4.10963
G1 X97.002 Y119.876 E4.1209
G1 X96.615 Y119.578 E4.13065
G1 X96.441 Y119.435 E4.13515
G1 X95.987 Y119.03 E4.14729
G1 X95.554 Y118.61 E4.15933
G1 X94.92 Y117.911 E4.17816
G1 X94.405 Y117.265 E4.19464
G1 X93.784 Y116.354 E4.21665
G1 X93.372 Y115.641 E4.23308
G1 X92.891 Y114.644 E4.25517
G1 X92.587 Y113.87 E4.27177
G1 X92.26 Y112.809 E4.29392
G1 X92.077 Y112.006 E4.31036
G1 X91.913 Y110.917 E4.33233
G1 X91.851 Y110.092 E4.34884
G1 X91.849 Y109.012 E4.3704
G1 X91.905 Y108.225 E4.38614
G1 X92.055 Y107.176 E4.40729
G1 X92.223 Y106.404 E4.42306
G1 X92.526 Y105.379 E4.44439
G1 X92.804 Y104.638 E4.46018
G1 X93.111 Y103.933 E4.47553
G1 X93.451 Y103.332 E4.48931
G1 X93.668 Y102.898 E4.49899
G1 X94.081 Y102.249 E4.51434
G1 X94.451 Y101.783 E4.52621
G1 X94.652 Y101.483 E4.53342
G1 X95.143 Y100.892 E4.54875
G1 X95.694 Y100.355 E4.56411
G1 X95.868 Y100.159 E4.56934
G0 F6000 X96.182 Y100.411
G1 F1200 X96.665 Y99.969 E4.5824
G1 X96.837 Y99.826 E4.58687
G1 X97.256 Y99.504 E4.59741
G1 X97.716 Y99.177 E4.60868
G1 X98.076 Y98.937 E4.61731
G1 X98.298 Y98.799 E4.62253
G1 X98.811 Y98.51 E4.63428
G1 X99.283 Y98.269 E4.64485
G1 X99.697 Y98.074 E4.65399
G1 X99.971 Y97.956 E4.65994
G1 X100.471 Y97.763 E4.67063
G1 X100.935 Y97.604 E4.68042
G1 X101.443 Y97.451 E4.69101
G1 X101.77 Y97.366 E4.69775
G1 X102.248 Y97.26 E4.70752
G1 X102.693 Y97.177 E4.71656
G1 X103.234 Y97.097 E4.72747
G1 X103.609 Y97.057 E4.735
G1 X104.096 Y97.023 E4.74474
G1 X104.508 Y97.008 E4.75297
G1 X105.018 Y97.008 E4.76314
G1 X105.43 Y97.023 E4.77137
G1 X105.917 Y97.057 E4.78111
G1 X106.292 Y97.097 E4.78864
G1 X106.822 Y97.175 E4.79933
G1 X107.349 Y97.273 E4.81003
G1 X107.774 Y97.371 E4.81873
G1 X108.101 Y97.457 E4.82548
G1 X108.577 Y97.601 E4.8354
G1 X109.041 Y97.759 E4.84518
G1 X109.517 Y97.94 E4.85535
G1 X109.793 Y98.057 E4.86133
G1 X110.281 Y98.287 E4.8721
G1 X110.75 Y98.53 E4.88264
G1 X111.143 Y98.75 E4.89162
G1 X111.367 Y98.885 E4.89684
G1 X111.838 Y99.195 E4.9081
G1 X112.296 Y99.524 E4.91935
G1 X112.69 Y99.829 E4.92929
G1 X112.863 Y99.973 E4.93379
G1 X113.247 Y100.317 E4.94407
G1 X113.68 Y100.735 E4.95608
G1 X114.293 Y101.409 E4.97427
G1 X114.81 Y102.058 E4.99082
G1 X115.396 Y102.918 E5.01159
G1 X115.808 Y103.631 E5.02803
G1 X116.258 Y104.564 E5.0487
G1 X116.436 Y105.016 E5.05839
G1 X116.856 Y104.985 E5.0668
G1 X117.269 Y104.971 E5.07504
G1 X117.743 Y104.971 E5.0845
G1 X118.157 Y104.985 E5.09277
G1 X118.705 Y105.025 E5.10373
G1 X119.077 Y105.067 E5.1112
G1 X119.543 Y105.136 E5.1206
G1 X120.092 Y105.237 E5.13174
G1 X120.532 Y105.339 E5.14076
G1 X120.86 Y105.426 E5.14753
G1 X121.296 Y105.557 E5.15661
G1 X121.76 Y105.713 E5.16638
G1 X122.329 Y105.932 E5.17855
G1 X122.604 Y106.052 E5.18454
G1 X122.982 Y106.231 E5.19288
G1 X123.451 Y106.47 E5.20339
G1 X123.964 Y106.759 E5.21514
G1 X124.188 Y106.898 E5.2204
G1 X124.573 Y107.155 E5.22964
G1 X125.031 Y107.483 E5.24088
G1 X125.4 Y107.766 E5.25016
G1 X125.574 Y107.909 E5.25465
G1 X126.003 Y108.292 E5.26613
G1 X126.435 Y108.711 E5.27814
G1 X127.029 Y109.365 E5.29577
G1 X127.547 Y110.013 E5.31233
G1 X128.144 Y110.888 E5.33347
G1 X128.555 Y111.601 E5.34989
G1 X129.005 Y112.538 E5.37063
G1 X129.309 Y113.312 E5.38723
G1 X129.617 Y114.308 E5.40803
G1 X129.801 Y115.111 E5.42447
G1 X129.959 Y116.158 E5.4456
G1 X130.02 Y116.983 E5.46211
G1 X130.021 Y117.996 E5.48233
G1 X129.965 Y118.783 E5.49807
G1 X129.823 Y119.776 E5.51809
G1 X129.655 Y120.547 E5.53384
G1 X129.376 Y121.497 E5.5536
G1 X129.1 Y122.239 E5.5694
G1 X128.802 Y122.926 E5.58434
G1 X128.454 Y123.54 E5.59842
G1 X128.233 Y123.977 E5.6082
G1 X127.826 Y124.605 E5.62313
G1 X127.511 Y124.993 E5.6331
G1 X127.287 Y125.328 E5.64115
G1 X126.806 Y125.902 E5.65609
G1 X126.29 Y126.398 E5.67037
G1 X126.078 Y126.634 E5.67671
G1 X125.604 Y127.066 E5.6895
G1 X125.432 Y127.209 E5.69397
G1 X125.021 Y127.525 E5.70431
G1 X124.561 Y127.853 E5.71559
G1 X124.193 Y128.099 E5.72442
G1 X123.971 Y128.237 E5.72964
G1 X123.453 Y128.529 E5.7415
G1 X122.982 Y128.769 E5.75205
G1 X122.584 Y128.956 E5.76083
G1 X122.309 Y129.075 E5.76681
G1 X121.79 Y129.276 E5.77792
G1 X121.327 Y129.434 E5.78768
G1 X120.841 Y129.58 E5.79781
G1 X120.513 Y129.666 E5.80457
G1 X120.021 Y129.776 E5.81463
G1 X119.576 Y129.859 E5.82367
G1 X119.037 Y129.938 E5.83454
G1 X118.663 Y129.978 E5.84204
G1 X118.173 Y130.013 E5.85185
G1 X117.76 Y130.028 E5.86009
G1 X117.251 Y130.028 E5.87025
G1 X116.839 Y130.013 E5.87848
G1 X116.352 Y129.979 E5.88822
G1 X115.977 Y129.939 E5.89575
G1 X115.444 Y129.861 E5.9065
G1 X114.921 Y129.763 E5.91712
G1 X114.481 Y129.661 E5.92613
G1 X114.153 Y129.574 E5.9329
G1 X113.704 Y129.439 E5.94226
G1 X113.24 Y129.282 E5.95203
