;FLAVOR:Marlin
;TIME:11390
;Filament used: 4.14121m
;Layer height: 0.12
;MINX:89.7
;MINY:72.2
;MINZ:0.12
;MAXX:145.3
;MAXY:162.8
;MAXZ:21.36
;Generated with Cura_SteamEngine 4.13.1
M140 S50
M105
M190 S50
M104 S200
M105
M109 S200
M82 ;absolute extrusion mode
; Ender 3 Custom Start G-code
G92 E0 ; Reset Extruder
G28 ; Home all axes
G1 Z2.0 F3000 ; Move Z Axis up little to prevent scratching of Heat Bed
G1 X0.1 Y20 Z0.3 F5000.0 ; Move to start position
G1 X0.1 Y200.0 Z0.3 F1500.0 E15 ; Draw the first line
G1 X0.4 Y200.0 Z0.3 F5000.0 ; Move to side a little
G1 X0.4 Y20 Z0.3 F1500.0 E30 ; Draw the second line
G92 E0 ; Reset Extruder
G1 Z2.0 F3000 ; Move Z Axis up little to prevent scratching of Heat Bed
G1 X5 Y20 Z0.3 F5000.0 ; Move over to prevent blob squish
G92 E0
G92 E0
G1 F2700 E-5
;LAYER_COUNT:178
;LAYER:0
M107
G0 F6000 X91.568 Y75.579 Z0.12
;TYPE:SKIRT
G1 F2700 E0
G1 F1200 X92.204 Y74.86 E0.01916
G1 X92.36 Y74.704 E0.02356
G1 X92.946 Y74.174 E0.03933
G1 X93.725 Y73.614 E0.05847
G1 X93.916 Y73.494 E0.06297
G1 X94.606 Y73.109 E0.07874
G1 X95.495 Y72.735 E0.09799
G1 X95.707 Y72.661 E0.10247
G1 X96.465 Y72.439 E0.11823
G1 X97.409 Y72.274 E0.13736
G1 X97.632 Y72.249 E0.14183
G1 X98.501 Y72.2 E0.1592
G1 X136.499 Y72.2 E0.9175
G1 X137.368 Y72.249 E0.93486
G1 X137.591 Y72.274 E0.93934
G1 X138.37 Y72.401 E0.95509
G1 X139.293 Y72.661 E0.97423
G1 X139.505 Y72.735 E0.97871
G1 X140.236 Y73.032 E0.99446
G1 X141.084 Y73.494 E1.01373
G1 X141.275 Y73.614 E1.01823
G1 X141.921 Y74.068 E1.03399
G1 X142.64 Y74.704 E1.05314
G1 X142.796 Y74.86 E1.05755
G1 X143.326 Y75.446 E1.07331
G1 X143.886 Y76.225 E1.09246
G1 X144.006 Y76.416 E1.09696
G1 X144.391 Y77.106 E1.11273
G1 X144.762 Y77.986 E1.13179
G1 X144.837 Y78.2 E1.13631
G1 X145.06 Y78.958 E1.15208
G1 X145.23 Y79.93 E1.17177
G1 X145.254 Y80.149 E1.17617
G1 X145.3 Y80.999 E1.19316
G1 X145.3 Y153.999 E2.64995
G1 X145.254 Y154.841 E2.66678
G1 X145.23 Y155.062 E2.67121
G1 X145.106 Y155.842 E2.68698
G1 X144.837 Y156.8 E2.70683
G1 X144.762 Y157.014 E2.71136
G1 X144.463 Y157.745 E2.72712
G1 X144.006 Y158.584 E2.74618
G1 X143.886 Y158.775 E2.75069
G1 X143.432 Y159.421 E2.76644
G1 X142.796 Y160.14 E2.7856
G1 X142.64 Y160.296 E2.79
G1 X142.054 Y160.826 E2.80577
G1 X141.275 Y161.386 E2.82492
G1 X141.084 Y161.506 E2.82942
G1 X140.394 Y161.891 E2.84519
G1 X139.505 Y162.265 E2.86443
G1 X139.293 Y162.339 E2.86891
G1 X138.535 Y162.561 E2.88468
G1 X137.591 Y162.726 E2.9038
G1 X137.368 Y162.751 E2.90828
G1 X136.499 Y162.8 E2.92565
G1 X98.492 Y162.799 E3.68412
G1 X97.623 Y162.75 E3.70149
G1 X97.409 Y162.726 E3.70578
G1 X96.629 Y162.599 E3.72156
G1 X95.707 Y162.339 E3.74067
G1 X95.495 Y162.265 E3.74515
G1 X94.764 Y161.968 E3.7609
G1 X93.916 Y161.506 E3.78017
G1 X93.725 Y161.386 E3.78467
G1 X93.079 Y160.932 E3.80043
G1 X92.36 Y160.296 E3.81959
G1 X92.204 Y160.14 E3.82399
G1 X91.674 Y159.554 E3.83976
G1 X91.114 Y158.775 E3.8589
G1 X90.994 Y158.584 E3.8634
G1 X90.609 Y157.894 E3.87917
G1 X90.238 Y157.014 E3.89823
G1 X90.163 Y156.8 E3.90275
G1 X89.94 Y156.042 E3.91852
G1 X89.77 Y155.07 E3.93821
G1 X89.746 Y154.851 E3.94261
G1 X89.7 Y154.001 E3.9596
G1 X89.7 Y81.001 E5.41639
G1 X89.746 Y80.159 E5.43322
G1 X89.77 Y79.938 E5.43766
G1 X89.894 Y79.158 E5.45342
G1 X90.163 Y78.2 E5.47327
G1 X90.238 Y77.986 E5.4778
G1 X90.537 Y77.255 E5.49356
G1 X90.994 Y76.416 E5.51263
G1 X91.114 Y76.225 E5.51713
G1 X91.568 Y75.579 E5.53289
G0 F6000 X91.896 Y75.809
G1 F1200 X92.486 Y75.142 E5.55066
G1 X92.642 Y74.986 E5.55506
G1 X93.214 Y74.472 E5.57041
G1 X93.938 Y73.953 E5.58818
G1 X94.129 Y73.833 E5.59268
G1 X94.801 Y73.458 E5.60804
G1 X95.627 Y73.112 E5.62591
G1 X95.839 Y73.038 E5.63039
G1 X96.578 Y72.823 E5.64575
G1 X97.454 Y72.671 E5.6635
G1 X97.677 Y72.646 E5.66797
G1 X98.501 Y72.6 E5.68444
G1 X136.499 Y72.6 E6.44273
G1 X137.323 Y72.646 E6.4592
G1 X137.546 Y72.671 E6.46368
G1 X138.305 Y72.796 E6.47903
G1 X139.161 Y73.038 E6.49678
G1 X139.373 Y73.112 E6.50126
G1 X140.085 Y73.403 E6.51661
G1 X140.871 Y73.833 E6.53449
G1 X141.062 Y73.953 E6.539
G1 X141.691 Y74.396 E6.55435
G1 X142.358 Y74.986 E6.57212
G1 X142.514 Y75.142 E6.57652
G1 X143.028 Y75.714 E6.59187
G1 X143.547 Y76.438 E6.60965
G1 X143.667 Y76.629 E6.61415
G1 X144.042 Y77.301 E6.6295
G1 X144.385 Y78.118 E6.64719
G1 X144.46 Y78.332 E6.65171
G1 X144.676 Y79.071 E6.66708
G1 X144.832 Y79.974 E6.68536
G1 X144.856 Y80.193 E6.68976
G1 X144.9 Y80.999 E6.70587
G1 X144.9 Y153.999 E8.16266
G1 X144.857 Y154.798 E8.17863
G1 X144.833 Y155.019 E8.18307
G1 X144.71 Y155.778 E8.19841
G1 X144.46 Y156.668 E8.21686
G1 X144.385 Y156.882 E8.22139
G1 X144.093 Y157.593 E8.23672
G1 X143.667 Y158.371 E8.25442
G1 X143.547 Y158.562 E8.25893
G1 X143.104 Y159.191 E8.27428
G1 X142.514 Y159.858 E8.29205
G1 X142.358 Y160.014 E8.29645
G1 X141.786 Y160.528 E8.3118
G1 X141.062 Y161.047 E8.32958
G1 X140.871 Y161.167 E8.33408
G1 X140.199 Y161.542 E8.34943
G1 X139.373 Y161.888 E8.36731
G1 X139.161 Y161.962 E8.37179
G1 X138.422 Y162.177 E8.38715
G1 X137.546 Y162.329 E8.40489
G1 X137.323 Y162.354 E8.40937
G1 X136.499 Y162.4 E8.42584
G1 X98.492 Y162.399 E9.18431
G1 X97.667 Y162.353 E9.2008
G1 X97.453 Y162.329 E9.20509
G1 X96.694 Y162.204 E9.22044
G1 X95.839 Y161.962 E9.23818
G1 X95.627 Y161.888 E9.24266
G1 X94.915 Y161.597 E9.25801
G1 X94.129 Y161.167 E9.27589
G1 X93.938 Y161.047 E9.28039
G1 X93.309 Y160.604 E9.29574
G1 X92.642 Y160.014 E9.31351
G1 X92.486 Y159.858 E9.31792
G1 X91.972 Y159.286 E9.33326
G1 X91.453 Y158.562 E9.35104
G1 X91.333 Y158.371 E9.35554
G1 X90.958 Y157.699 E9.3709
G1 X90.615 Y156.882 E9.38858
G1 X90.54 Y156.668 E9.39311
G1 X90.324 Y155.929 E9.40847
G1 X90.168 Y155.026 E9.42676
G1 X90.144 Y154.807 E9.43115
G1 X90.1 Y154.001 E9.44726
G1 X90.1 Y81.001 E10.90406
G1 X90.143 Y80.202 E10.92002
G1 X90.167 Y79.981 E10.92446
G1 X90.29 Y79.222 E10.93981
G1 X90.54 Y78.332 E10.95825
G1 X90.615 Y78.118 E10.96278
G1 X90.907 Y77.407 E10.97812
G1 X91.333 Y76.629 E10.99582
G1 X91.453 Y76.438 E11.00032
G1 X91.896 Y75.809 E11.01567
G0 F6000 X92.223 Y76.04
G1 F1200 X92.769 Y75.425 E11.03208
G1 X92.925 Y75.269 E11.03649
G1 X93.482 Y74.769 E11.05142
G1 X94.151 Y74.292 E11.06782
G1 X94.342 Y74.172 E11.07232
G1 X94.996 Y73.808 E11.08726
G1 X95.759 Y73.49 E11.10376
G1 X95.971 Y73.416 E11.10824
G1 X96.69 Y73.208 E11.12317
G1 X97.498 Y73.069 E11.13953
G1 X97.721 Y73.044 E11.14401
G1 X98.501 Y73 E11.1596
G1 X136.499 Y73 E11.91789
G1 X137.279 Y73.044 E11.93348
G1 X137.502 Y73.069 E11.93796
G1 X138.24 Y73.192 E11.95289
G1 X139.029 Y73.416 E11.96926
G1 X139.241 Y73.49 E11.97374
G1 X139.933 Y73.774 E11.98867
G1 X140.658 Y74.172 E12.00517
G1 X140.849 Y74.292 E12.00968
G1 X141.46 Y74.723 E12.0246
G1 X142.075 Y75.269 E12.04101
G1 X142.231 Y75.425 E12.04541
G1 X142.731 Y75.982 E12.06035
G1 X143.208 Y76.651 E12.07675
G1 X143.328 Y76.842 E12.08125
G1 X143.692 Y77.496 E12.09618
G1 X144.007 Y78.251 E12.11251
G1 X144.082 Y78.465 E12.11703
G1 X144.291 Y79.183 E12.13196
G1 X144.434 Y80.017 E12.14884
G1 X144.458 Y80.236 E12.15324
G1 X144.5 Y80.999 E12.16849
G1 X144.5 Y153.999 E13.62528
G1 X144.459 Y154.755 E13.64039
G1 X144.435 Y154.976 E13.64483
G1 X144.315 Y155.714 E13.65975
G1 X144.082 Y156.535 E13.67678
G1 X144.007 Y156.749 E13.68131
G1 X143.722 Y157.441 E13.69624
G1 X143.328 Y158.158 E13.71257
G1 X143.208 Y158.349 E13.71707
G1 X142.777 Y158.96 E13.73199
G1 X142.231 Y159.575 E13.7484
G1 X142.075 Y159.731 E13.75281
G1 X141.518 Y160.231 E13.76774
G1 X140.849 Y160.708 E13.78414
G1 X140.658 Y160.828 E13.78864
G1 X140.004 Y161.192 E13.80358
G1 X139.241 Y161.51 E13.82007
G1 X139.029 Y161.584 E13.82455
G1 X138.31 Y161.792 E13.83949
G1 X137.502 Y161.931 E13.85585
G1 X137.279 Y161.956 E13.86033
G1 X136.499 Y162 E13.87592
G1 X98.492 Y161.999 E14.63439
G1 X97.712 Y161.955 E14.64998
G1 X97.498 Y161.931 E14.65428
G1 X96.76 Y161.808 E14.66921
G1 X95.971 Y161.584 E14.68558
G1 X95.759 Y161.51 E14.69006
G1 X95.067 Y161.226 E14.70499
G1 X94.342 Y160.828 E14.72149
G1 X94.151 Y160.708 E14.72599
G1 X93.54 Y160.277 E14.74091
G1 X92.925 Y159.731 E14.75733
G1 X92.769 Y159.575 E14.76173
G1 X92.269 Y159.018 E14.77667
G1 X91.792 Y158.349 E14.79306
G1 X91.672 Y158.158 E14.79756
G1 X91.308 Y157.504 E14.8125
G1 X90.993 Y156.749 E14.82883
G1 X90.918 Y156.535 E14.83335
G1 X90.709 Y155.817 E14.84827
G1 X90.566 Y154.983 E14.86516
G1 X90.542 Y154.764 E14.86956
G1 X90.5 Y154.001 E14.88481
G1 X90.5 Y81.001 E16.3416
G1 X90.541 Y80.245 E16.35671
G1 X90.565 Y80.024 E16.36115
G1 X90.685 Y79.286 E16.37607
G1 X90.918 Y78.465 E16.3931
G1 X90.993 Y78.251 E16.39762
G1 X91.278 Y77.559 E16.41256
G1 X91.672 Y76.842 E16.42888
G1 X91.792 Y76.651 E16.43339
G1 X92.223 Y76.04 E16.44831
G0 F6000 X92.55 Y76.271
G1 F1200 X93.052 Y75.708 E16.46336
G1 X93.208 Y75.552 E16.46776
G1 X93.749 Y75.068 E16.48225
G1 X94.364 Y74.63 E16.49732
G1 X94.555 Y74.51 E16.50182
G1 X95.19 Y74.158 E16.51631
G1 X95.891 Y73.868 E16.53145
G1 X96.103 Y73.794 E16.53593
G1 X96.801 Y73.592 E16.55043
G1 X97.543 Y73.466 E16.56545
G1 X97.766 Y73.441 E16.56993
G1 X98.501 Y73.4 E16.58462
G1 X136.499 Y73.4 E17.34291
G1 X137.234 Y73.441 E17.3576
G1 X137.457 Y73.466 E17.36208
G1 X138.174 Y73.587 E17.37659
G1 X138.897 Y73.794 E17.39159
G1 X139.109 Y73.868 E17.39608
G1 X139.781 Y74.144 E17.41057
G1 X140.445 Y74.51 E17.4257
G1 X140.636 Y74.63 E17.43021
G1 X141.229 Y75.05 E17.44471
G1 X141.792 Y75.552 E17.45976
G1 X141.948 Y75.708 E17.46416
G1 X142.432 Y76.249 E17.47865
G1 X142.87 Y76.864 E17.49372
G1 X142.99 Y77.055 E17.49822
G1 X143.342 Y77.69 E17.51271
G1 X143.63 Y78.383 E17.52768
G1 X143.705 Y78.597 E17.53221
G1 X143.907 Y79.295 E17.54671
G1 X144.037 Y80.061 E17.56221
G1 X144.061 Y80.28 E17.56661
G1 X144.1 Y80.999 E17.58098
G1 X144.1 Y153.999 E19.03777
G1 X144.061 Y154.712 E19.05202
G1 X144.037 Y154.933 E19.05646
G1 X143.919 Y155.649 E19.07094
G1 X143.705 Y156.403 E19.08658
G1 X143.63 Y156.617 E19.09111
G1 X143.352 Y157.288 E19.1056
G1 X142.99 Y157.945 E19.12057
G1 X142.87 Y158.136 E19.12507
G1 X142.45 Y158.729 E19.13957
G1 X141.948 Y159.292 E19.15463
G1 X141.792 Y159.448 E19.15903
G1 X141.251 Y159.932 E19.17352
G1 X140.636 Y160.37 E19.18858
G1 X140.445 Y160.49 E19.19309
G1 X139.81 Y160.842 E19.20757
G1 X139.109 Y161.132 E19.22271
G1 X138.897 Y161.206 E19.22719
G1 X138.199 Y161.408 E19.2417
G1 X137.457 Y161.534 E19.25671
G1 X137.234 Y161.559 E19.26119
G1 X136.499 Y161.6 E19.27588
G1 X98.492 Y161.599 E20.03435
G1 X97.756 Y161.558 E20.04906
G1 X97.542 Y161.534 E20.05336
G1 X96.826 Y161.413 E20.06785
G1 X96.103 Y161.206 E20.08286
G1 X95.891 Y161.132 E20.08734
G1 X95.219 Y160.856 E20.10184
G1 X94.555 Y160.49 E20.11697
G1 X94.364 Y160.37 E20.12147
G1 X93.771 Y159.95 E20.13597
G1 X93.208 Y159.448 E20.15103
G1 X93.052 Y159.292 E20.15543
G1 X92.568 Y158.751 E20.16991
G1 X92.13 Y158.136 E20.18498
G1 X92.01 Y157.945 E20.18948
G1 X91.658 Y157.31 E20.20397
G1 X91.37 Y156.617 E20.21895
G1 X91.295 Y156.403 E20.22347
G1 X91.093 Y155.705 E20.23797
G1 X90.963 Y154.939 E20.25348
G1 X90.939 Y154.72 E20.25788
G1 X90.9 Y154.001 E20.27225
G1 X90.9 Y81.001 E21.72904
G1 X90.939 Y80.288 E21.74329
G1 X90.963 Y80.067 E21.74773
G1 X91.081 Y79.351 E21.76221
G1 X91.295 Y78.597 E21.77785
G1 X91.37 Y78.383 E21.78237
G1 X91.648 Y77.712 E21.79687
G1 X92.01 Y77.055 E21.81184
G1 X92.13 Y76.864 E21.81634
G1 X92.55 Y76.271 E21.83084
G0 F6000 X92.877 Y76.503
G1 F1200 X93.335 Y75.991 E21.84455
G1 X93.491 Y75.835 E21.84895
G1 X94.016 Y75.366 E21.863
G1 X94.577 Y74.969 E21.87672
G1 X94.768 Y74.849 E21.88122
G1 X95.384 Y74.509 E21.89526
G1 X96.023 Y74.245 E21.90906
G1 X96.235 Y74.171 E21.91354
G1 X96.912 Y73.977 E21.92759
G1 X97.587 Y73.864 E21.94125
G1 X97.81 Y73.839 E21.94573
G1 X98.501 Y73.8 E21.95954
G1 X136.499 Y73.8 E22.71783
G1 X137.19 Y73.839 E22.73164
G1 X137.413 Y73.864 E22.73612
G1 X138.107 Y73.982 E22.75017
G1 X138.765 Y74.171 E22.76383
G1 X138.977 Y74.245 E22.76831
G1 X139.628 Y74.515 E22.78237
G1 X140.232 Y74.849 E22.79615
G1 X140.423 Y74.969 E22.80065
G1 X140.997 Y75.377 E22.8147
G1 X141.509 Y75.835 E22.82841
G1 X141.665 Y75.991 E22.83282
G1 X142.134 Y76.516 E22.84686
G1 X142.531 Y77.077 E22.86058
G1 X142.651 Y77.268 E22.86508
G1 X142.991 Y77.884 E22.87912
G1 X143.252 Y78.515 E22.89275
G1 X143.327 Y78.729 E22.89727
G1 X143.522 Y79.406 E22.91133
G1 X143.639 Y80.105 E22.92548
G1 X143.663 Y80.324 E22.92987
G1 X143.7 Y80.999 E22.94336
G1 X143.7 Y153.999 E24.40016
G1 X143.664 Y154.668 E24.41353
G1 X143.64 Y154.889 E24.41796
G1 X143.524 Y155.584 E24.43203
G1 X143.327 Y156.271 E24.44629
G1 X143.252 Y156.485 E24.45081
G1 X142.982 Y157.135 E24.46486
G1 X142.651 Y157.732 E24.47848
G1 X142.531 Y157.923 E24.48298
G1 X142.123 Y158.497 E24.49704
G1 X141.665 Y159.009 E24.51075
G1 X141.509 Y159.165 E24.51515
G1 X140.984 Y159.634 E24.5292
G1 X140.423 Y160.031 E24.54291
G1 X140.232 Y160.151 E24.54741
G1 X139.616 Y160.491 E24.56145
G1 X138.977 Y160.755 E24.57525
G1 X138.765 Y160.829 E24.57973
G1 X138.088 Y161.023 E24.59379
G1 X137.413 Y161.136 E24.60744
G1 X137.19 Y161.161 E24.61192
G1 X136.499 Y161.2 E24.62573
G1 X98.492 Y161.199 E25.38421
G1 X97.801 Y161.16 E25.39802
G1 X97.587 Y161.136 E25.40231
G1 X96.893 Y161.018 E25.41636
G1 X96.235 Y160.829 E25.43002
G1 X96.023 Y160.755 E25.43451
G1 X95.372 Y160.485 E25.44857
G1 X94.768 Y160.151 E25.46234
G1 X94.577 Y160.031 E25.46684
G1 X94.003 Y159.623 E25.4809
G1 X93.491 Y159.165 E25.49461
G1 X93.335 Y159.009 E25.49901
G1 X92.866 Y158.484 E25.51306
G1 X92.469 Y157.923 E25.52677
G1 X92.349 Y157.732 E25.53128
G1 X92.009 Y157.116 E25.54532
G1 X91.748 Y156.485 E25.55894
G1 X91.673 Y156.271 E25.56347
G1 X91.478 Y155.594 E25.57753
G1 X91.361 Y154.895 E25.59167
G1 X91.337 Y154.676 E25.59607
G1 X91.3 Y154.001 E25.60956
G1 X91.3 Y81.001 E27.06635
G1 X91.336 Y80.332 E27.07972
G1 X91.36 Y80.111 E27.08416
G1 X91.476 Y79.416 E27.09822
G1 X91.673 Y78.729 E27.11248
G1 X91.748 Y78.515 E27.11701
G1 X92.018 Y77.865 E27.13105
G1 X92.349 Y77.268 E27.14468
G1 X92.469 Y77.077 E27.14918
G1 X92.877 Y76.503 E27.16323
G0 F6000 X93.203 Y76.735
G1 F1200 X93.618 Y76.274 E27.17561
G1 X93.774 Y76.118 E27.18001
G1 X94.283 Y75.665 E27.19361
G1 X94.789 Y75.308 E27.20597
G1 X94.98 Y75.188 E27.21047
G1 X95.577 Y74.86 E27.22406
G1 X96.155 Y74.623 E27.23653
G1 X96.367 Y74.549 E27.24101
G1 X97.021 Y74.363 E27.25458
G1 X97.632 Y74.261 E27.26694
G1 X97.855 Y74.236 E27.27142
G1 X98.501 Y74.2 E27.28433
G1 X136.499 Y74.2 E28.04262
G1 X137.145 Y74.236 E28.05553
G1 X137.368 Y74.261 E28.06001
G1 X138.039 Y74.377 E28.0736
G1 X138.633 Y74.549 E28.08594
G1 X138.845 Y74.623 E28.09042
G1 X139.474 Y74.885 E28.10402
G1 X140.02 Y75.188 E28.11648
G1 X140.211 Y75.308 E28.12098
G1 X140.765 Y75.703 E28.13456
G1 X141.226 Y76.118 E28.14694
G1 X141.382 Y76.274 E28.15134
G1 X141.835 Y76.783 E28.16494
G1 X142.192 Y77.289 E28.1773
G1 X142.312 Y77.48 E28.1818
G1 X142.64 Y78.077 E28.19539
G1 X142.875 Y78.648 E28.20772
G1 X142.95 Y78.862 E28.21224
G1 X143.137 Y79.516 E28.22582
G1 X143.241 Y80.148 E28.2386
G1 X143.265 Y80.367 E28.24299
G1 X143.3 Y80.999 E28.25563
G1 X143.3 Y153.999 E29.71242
G1 X143.266 Y154.625 E29.72493
G1 X143.242 Y154.846 E29.72937
G1 X143.129 Y155.518 E29.74297
G1 X142.95 Y156.138 E29.75584
G1 X142.875 Y156.352 E29.76037
G1 X142.612 Y156.981 E29.77397
G1 X142.312 Y157.52 E29.78628
G1 X142.192 Y157.711 E29.79079
G1 X141.797 Y158.265 E29.80436
G1 X141.382 Y158.726 E29.81674
G1 X141.226 Y158.882 E29.82114
G1 X140.717 Y159.335 E29.83474
G1 X140.211 Y159.692 E29.8471
G1 X140.02 Y159.812 E29.8516
G1 X139.423 Y160.14 E29.8652
G1 X138.845 Y160.377 E29.87766
G1 X138.633 Y160.451 E29.88214
G1 X137.979 Y160.637 E29.89571
G1 X137.368 Y160.739 E29.90807
G1 X137.145 Y160.764 E29.91255
G1 X136.499 Y160.8 E29.92546
G1 X98.492 Y160.799 E30.68393
G1 X97.846 Y160.763 E30.69685
G1 X97.632 Y160.739 E30.70114
G1 X96.961 Y160.623 E30.71473
G1 X96.367 Y160.451 E30.72707
G1 X96.155 Y160.377 E30.73155
G1 X95.526 Y160.115 E30.74515
G1 X94.98 Y159.812 E30.75761
G1 X94.789 Y159.692 E30.76212
G1 X94.235 Y159.297 E30.77569
G1 X93.774 Y158.882 E30.78807
G1 X93.618 Y158.726 E30.79247
G1 X93.165 Y158.217 E30.80607
G1 X92.808 Y157.711 E30.81843
G1 X92.688 Y157.52 E30.82293
