;FLAVOR:Marlin
;TIME:8509
;Filament used: 3.20875m
;Layer height: 0.12
;MINX:98.65
;MINY:82.2
;MINZ:0.12
;MAXX:136.35
;MAXY:152.8
;MAXZ:15.12
;Generated with Cura_SteamEngine 4.13.1
M140 S50
M105
M190 S50
M104 S200
M105
M109 S200
M82 ;absolute extrusion mode
; Ender 3 Custom Start G-code
G92 E0 ; Reset Extruder
G28 ; Home all axes
G1 Z2.0 F3000 ; Move Z Axis up little to prevent scratching of Heat Bed
G1 X0.1 Y20 Z0.3 F5000.0 ; Move to start position
G1 X0.1 Y200.0 Z0.3 F1500.0 E15 ; Draw the first line
G1 X0.4 Y200.0 Z0.3 F5000.0 ; Move to side a little
G1 X0.4 Y20 Z0.3 F1500.0 E30 ; Draw the second line
G92 E0 ; Reset Extruder
G1 Z2.0 F3000 ; Move Z Axis up little to prevent scratching of Heat Bed
G1 X5 Y20 Z0.3 F5000.0 ; Move over to prevent blob squish
G92 E0
G92 E0
G1 F2700 E-5
;LAYER_COUNT:126
;LAYER:0
M107
G0 F6000 X100.53 Y84.922 Z0.12
;TYPE:SKIRT
G1 F2700 E0
G1 F1200 X101.073 Y84.349 E0.01575
G1 X101.672 Y83.834 E0.03152
G1 X102.32 Y83.383 E0.04727
G1 X103.011 Y82.999 E0.06305
G1 X103.736 Y82.687 E0.0788
G1 X104.489 Y82.45 E0.09455
G1 X105.263 Y82.291 E0.11032
G1 X106.048 Y82.21 E0.12607
G1 X106.45 Y82.2 E0.1341
G1 X128.55 Y82.2 E0.57513
G1 X129.339 Y82.24 E0.59089
G1 X130.119 Y82.359 E0.60664
G1 X130.884 Y82.557 E0.62241
G1 X131.624 Y82.831 E0.63815
G1 X132.333 Y83.179 E0.65391
G1 X133.004 Y83.597 E0.66969
G1 X133.628 Y84.08 E0.68544
G1 X134.201 Y84.623 E0.70119
G1 X134.716 Y85.222 E0.71696
G1 X135.167 Y85.87 E0.73271
G1 X135.551 Y86.561 E0.74849
G1 X135.863 Y87.286 E0.76424
G1 X136.1 Y88.039 E0.77999
G1 X136.259 Y88.813 E0.79576
G1 X136.34 Y89.598 E0.81151
G1 X136.35 Y90 E0.81953
G1 X136.35 Y145 E1.91712
G1 X136.31 Y145.789 E1.93288
G1 X136.191 Y146.569 E1.94863
G1 X135.993 Y147.334 E1.9644
G1 X135.719 Y148.074 E1.98015
G1 X135.371 Y148.783 E1.99591
G1 X134.953 Y149.454 E2.01168
G1 X134.47 Y150.078 E2.02743
G1 X133.927 Y150.651 E2.04319
G1 X133.328 Y151.166 E2.05895
G1 X132.68 Y151.617 E2.0747
G1 X131.989 Y152.001 E2.09048
G1 X131.264 Y152.313 E2.10623
G1 X130.511 Y152.55 E2.12199
G1 X129.737 Y152.709 E2.13775
G1 X128.952 Y152.79 E2.1535
G1 X128.55 Y152.8 E2.16153
G1 X106.45 Y152.8 E2.60256
G1 X105.661 Y152.76 E2.61832
G1 X104.881 Y152.641 E2.63407
G1 X104.116 Y152.443 E2.64984
G1 X103.376 Y152.169 E2.66558
G1 X102.667 Y151.821 E2.68135
G1 X101.996 Y151.403 E2.69712
G1 X101.372 Y150.92 E2.71287
G1 X100.799 Y150.377 E2.72862
G1 X100.284 Y149.778 E2.74439
G1 X99.833 Y149.13 E2.76014
G1 X99.449 Y148.439 E2.77592
G1 X99.137 Y147.714 E2.79167
G1 X98.9 Y146.961 E2.80742
G1 X98.741 Y146.187 E2.82319
G1 X98.66 Y145.402 E2.83894
G1 X98.65 Y145 E2.84697
G1 X98.65 Y90 E3.94455
G1 X98.69 Y89.211 E3.96032
G1 X98.809 Y88.431 E3.97606
G1 X99.007 Y87.666 E3.99183
G1 X99.281 Y86.926 E4.00758
G1 X99.629 Y86.217 E4.02334
G1 X100.047 Y85.546 E4.03912
G1 X100.53 Y84.922 E4.05486
G0 F6000 X100.925 Y85.077
G1 F1200 X101.466 Y84.53 E4.07022
G1 X102.061 Y84.042 E4.08557
G1 X102.703 Y83.619 E4.10092
G1 X103.386 Y83.264 E4.11628
G1 X104.101 Y82.983 E4.13161
G1 X104.843 Y82.777 E4.14698
G1 X105.601 Y82.649 E4.16232
G1 X106.45 Y82.6 E4.17929
G1 X128.55 Y82.6 E4.62032
G1 X129.318 Y82.64 E4.63566
G1 X130.078 Y82.759 E4.65101
G1 X130.821 Y82.957 E4.66636
G1 X131.54 Y83.231 E4.68171
G1 X132.226 Y83.578 E4.69706
G1 X132.873 Y83.994 E4.71241
G1 X133.473 Y84.475 E4.72775
G1 X134.02 Y85.016 E4.74311
G1 X134.508 Y85.611 E4.75846
G1 X134.931 Y86.253 E4.77381
G1 X135.286 Y86.936 E4.78917
G1 X135.567 Y87.651 E4.8045
G1 X135.773 Y88.393 E4.81986
G1 X135.901 Y89.151 E4.83521
G1 X135.95 Y90 E4.85218
G1 X135.95 Y145 E5.94976
G1 X135.91 Y145.768 E5.96511
G1 X135.791 Y146.528 E5.98046
G1 X135.593 Y147.271 E5.9958
G1 X135.319 Y147.99 E6.01116
G1 X134.972 Y148.676 E6.0265
G1 X134.556 Y149.323 E6.04185
G1 X134.075 Y149.923 E6.0572
G1 X133.534 Y150.47 E6.07255
G1 X132.939 Y150.958 E6.08791
G1 X132.297 Y151.381 E6.10325
G1 X131.614 Y151.736 E6.11861
G1 X130.899 Y152.017 E6.13394
G1 X130.157 Y152.223 E6.14931
G1 X129.399 Y152.351 E6.16465
G1 X128.55 Y152.4 E6.18162
G1 X106.45 Y152.4 E6.62265
G1 X105.682 Y152.36 E6.638
G1 X104.922 Y152.241 E6.65335
G1 X104.179 Y152.043 E6.66869
G1 X103.46 Y151.769 E6.68405
G1 X102.774 Y151.422 E6.69939
G1 X102.127 Y151.006 E6.71474
G1 X101.527 Y150.525 E6.73009
G1 X100.98 Y149.984 E6.74544
G1 X100.492 Y149.389 E6.7608
G1 X100.069 Y148.747 E6.77614
G1 X99.714 Y148.064 E6.7915
G1 X99.433 Y147.349 E6.80683
G1 X99.227 Y146.607 E6.8222
G1 X99.099 Y145.849 E6.83754
G1 X99.05 Y145 E6.85451
G1 X99.05 Y90 E7.9521
G1 X99.09 Y89.232 E7.96744
G1 X99.209 Y88.472 E7.98279
G1 X99.407 Y87.729 E7.99814
G1 X99.681 Y87.01 E8.01349
G1 X100.028 Y86.324 E8.02884
G1 X100.444 Y85.677 E8.04419
G1 X100.925 Y85.077 E8.05953
G0 F6000 X101.321 Y85.237
G1 F1200 X101.858 Y84.716 E8.07446
G1 X102.448 Y84.257 E8.08938
G1 X103.084 Y83.862 E8.10432
G1 X103.758 Y83.538 E8.11924
G1 X104.463 Y83.288 E8.13417
G1 X105.191 Y83.114 E8.14911
G1 X105.933 Y83.019 E8.16404
G1 X106.45 Y83 E8.17436
G1 X128.55 Y83 E8.61539
G1 X129.297 Y83.04 E8.63032
G1 X130.035 Y83.159 E8.64524
G1 X130.757 Y83.357 E8.66018
G1 X131.453 Y83.63 E8.6751
G1 X132.116 Y83.977 E8.69003
G1 X132.739 Y84.392 E8.70497
G1 X133.313 Y84.871 E8.71989
G1 X133.834 Y85.408 E8.73482
G1 X134.293 Y85.998 E8.74974
G1 X134.688 Y86.634 E8.76468
G1 X135.012 Y87.308 E8.7796
G1 X135.262 Y88.013 E8.79453
G1 X135.436 Y88.741 E8.80947
G1 X135.531 Y89.483 E8.8244
G1 X135.55 Y90 E8.83472
G1 X135.55 Y145 E9.9323
G1 X135.51 Y145.747 E9.94723
G1 X135.391 Y146.485 E9.96215
G1 X135.193 Y147.207 E9.97709
G1 X134.92 Y147.903 E9.99201
G1 X134.573 Y148.566 E10.00694
G1 X134.158 Y149.189 E10.02188
G1 X133.679 Y149.763 E10.0368
G1 X133.142 Y150.284 E10.05173
G1 X132.552 Y150.743 E10.06665
G1 X131.916 Y151.138 E10.08159
G1 X131.242 Y151.462 E10.09651
G1 X130.537 Y151.712 E10.11144
G1 X129.809 Y151.886 E10.12638
G1 X129.067 Y151.981 E10.14131
G1 X128.55 Y152 E10.15163
G1 X106.45 Y152 E10.59266
G1 X105.703 Y151.96 E10.60759
G1 X104.965 Y151.841 E10.62251
G1 X104.243 Y151.643 E10.63745
G1 X103.547 Y151.37 E10.65237
G1 X102.884 Y151.023 E10.6673
G1 X102.261 Y150.608 E10.68224
G1 X101.687 Y150.129 E10.69716
G1 X101.166 Y149.592 E10.71209
G1 X100.707 Y149.002 E10.72701
G1 X100.312 Y148.366 E10.74195
G1 X99.988 Y147.692 E10.75687
G1 X99.738 Y146.987 E10.7718
G1 X99.564 Y146.259 E10.78674
G1 X99.469 Y145.517 E10.80167
G1 X99.45 Y145 E10.81199
G1 X99.45 Y90 E11.90957
G1 X99.49 Y89.253 E11.9245
G1 X99.609 Y88.515 E11.93942
G1 X99.807 Y87.793 E11.95436
G1 X100.08 Y87.097 E11.96928
G1 X100.427 Y86.434 E11.98421
G1 X100.842 Y85.811 E11.99915
G1 X101.321 Y85.237 E12.01407
G0 F6000 X101.239 Y85.95
G1 F1200 X101.715 Y85.402 E12.02856
G1 X102.249 Y84.909 E12.04306
G1 X102.834 Y84.479 E12.05755
G1 X103.463 Y84.115 E12.07205
G1 X104.128 Y83.822 E12.08655
G1 X104.821 Y83.604 E12.10105
G1 X105.533 Y83.464 E12.11553
G1 X106.45 Y83.4 E12.13388
G1 X128.55 Y83.4 E12.57491
G1 X129.275 Y83.44 E12.5894
G1 X129.992 Y83.559 E12.6039
G1 X130.691 Y83.757 E12.6184
G1 X131.364 Y84.03 E12.63289
G1 X132.003 Y84.375 E12.64738
G1 X132.6 Y84.789 E12.66188
G1 X133.148 Y85.265 E12.67637
G1 X133.641 Y85.799 E12.69087
G1 X134.071 Y86.384 E12.70536
G1 X134.435 Y87.013 E12.71986
G1 X134.728 Y87.678 E12.73436
G1 X134.946 Y88.371 E12.74886
G1 X135.086 Y89.083 E12.76334
G1 X135.15 Y90 E12.78169
G1 X135.15 Y145 E13.87927
G1 X135.11 Y145.725 E13.89376
G1 X134.991 Y146.442 E13.90827
G1 X134.793 Y147.141 E13.92276
G1 X134.52 Y147.814 E13.93726
G1 X134.175 Y148.453 E13.95175
G1 X133.761 Y149.05 E13.96625
G1 X133.285 Y149.598 E13.98073
G1 X132.751 Y150.091 E13.99524
G1 X132.166 Y150.521 E14.00972
G1 X131.537 Y150.885 E14.02423
G1 X130.872 Y151.178 E14.03873
G1 X130.179 Y151.396 E14.05323
G1 X129.467 Y151.536 E14.06771
G1 X128.55 Y151.6 E14.08605
G1 X106.45 Y151.6 E14.52708
G1 X105.725 Y151.56 E14.54157
G1 X105.008 Y151.441 E14.55608
G1 X104.309 Y151.243 E14.57057
G1 X103.636 Y150.97 E14.58507
G1 X102.997 Y150.625 E14.59956
G1 X102.4 Y150.211 E14.61406
G1 X101.852 Y149.735 E14.62854
G1 X101.359 Y149.201 E14.64305
G1 X100.929 Y148.616 E14.65754
G1 X100.565 Y147.987 E14.67204
G1 X100.272 Y147.322 E14.68654
G1 X100.054 Y146.629 E14.70104
G1 X99.914 Y145.917 E14.71552
G1 X99.85 Y145 E14.73386
G1 X99.85 Y90 E15.83145
G1 X99.89 Y89.275 E15.84594
G1 X100.009 Y88.558 E15.86044
G1 X100.207 Y87.859 E15.87494
G1 X100.48 Y87.186 E15.88943
G1 X100.825 Y86.547 E15.90392
G1 X101.239 Y85.95 E15.91842
G0 F6000 X101.635 Y86.094
G1 F1200 X102.109 Y85.573 E15.93248
G1 X102.639 Y85.109 E15.94654
G1 X103.218 Y84.709 E15.96058
G1 X103.839 Y84.377 E15.97463
G1 X104.493 Y84.117 E15.98868
G1 X105.173 Y83.933 E16.00274
G1 X105.869 Y83.827 E16.01679
G1 X106.45 Y83.8 E16.02839
G1 X128.55 Y83.8 E16.46942
G1 X129.253 Y83.84 E16.48347
G1 X129.947 Y83.959 E16.49753
G1 X130.622 Y84.157 E16.51156
G1 X131.271 Y84.429 E16.52561
G1 X131.885 Y84.774 E16.53966
G1 X132.456 Y85.185 E16.5537
G1 X132.977 Y85.659 E16.56776
G1 X133.441 Y86.189 E16.58181
G1 X133.841 Y86.768 E16.59586
G1 X134.173 Y87.389 E16.60991
G1 X134.433 Y88.043 E16.62396
G1 X134.617 Y88.723 E16.63801
G1 X134.723 Y89.419 E16.65206
G1 X134.75 Y90 E16.66367
G1 X134.75 Y145 E17.76125
G1 X134.71 Y145.703 E17.77531
G1 X134.591 Y146.397 E17.78936
G1 X134.393 Y147.072 E17.8034
G1 X134.121 Y147.721 E17.81744
G1 X133.776 Y148.335 E17.83149
G1 X133.365 Y148.906 E17.84553
G1 X132.891 Y149.427 E17.85959
G1 X132.361 Y149.891 E17.87365
G1 X131.782 Y150.291 E17.88769
G1 X131.161 Y150.623 E17.90174
G1 X130.507 Y150.883 E17.91579
G1 X129.827 Y151.067 E17.92985
G1 X129.131 Y151.173 E17.9439
G1 X128.55 Y151.2 E17.9555
G1 X106.45 Y151.2 E18.39653
G1 X105.747 Y151.16 E18.41058
G1 X105.053 Y151.041 E18.42464
G1 X104.378 Y150.843 E18.43867
G1 X103.729 Y150.571 E18.45272
G1 X103.115 Y150.226 E18.46677
G1 X102.544 Y149.815 E18.48081
G1 X102.023 Y149.341 E18.49487
G1 X101.559 Y148.811 E18.50892
G1 X101.159 Y148.232 E18.52297
G1 X100.827 Y147.611 E18.53702
G1 X100.567 Y146.957 E18.55107
G1 X100.383 Y146.277 E18.56512
G1 X100.277 Y145.581 E18.57917
G1 X100.25 Y145 E18.59078
G1 X100.25 Y90 E19.68837
G1 X100.29 Y89.297 E19.70242
G1 X100.409 Y88.603 E19.71647
G1 X100.607 Y87.928 E19.73051
G1 X100.879 Y87.279 E19.74455
G1 X101.224 Y86.665 E19.7586
G1 X101.635 Y86.094 E19.77264
G0 F6000 X102.032 Y86.242
G1 F1200 X102.503 Y85.751 E19.78622
G1 X103.028 Y85.317 E19.79982
G1 X103.6 Y84.948 E19.8134
G1 X104.212 Y84.649 E19.82699
G1 X104.854 Y84.424 E19.84057
G1 X105.519 Y84.275 E19.85417
G1 X106.45 Y84.2 E19.87281
G1 X128.55 Y84.2 E20.31384
G1 X129.23 Y84.24 E20.32743
G1 X129.9 Y84.359 E20.34101
G1 X130.552 Y84.556 E20.3546
G1 X131.176 Y84.828 E20.36819
G1 X131.764 Y85.172 E20.38178
G1 X132.308 Y85.582 E20.39538
G1 X132.799 Y86.053 E20.40895
G1 X133.233 Y86.578 E20.42255
G1 X133.602 Y87.15 E20.43613
G1 X133.901 Y87.762 E20.44972
G1 X134.126 Y88.404 E20.4633
G1 X134.275 Y89.069 E20.4769
G1 X134.35 Y90 E20.49554
G1 X134.35 Y145 E21.59312
G1 X134.31 Y145.68 E21.60672
G1 X134.191 Y146.35 E21.6203
G1 X133.994 Y147.002 E21.63389
G1 X133.722 Y147.626 E21.64747
G1 X133.378 Y148.214 E21.66107
G1 X132.968 Y148.758 E21.67466
G1 X132.497 Y149.249 E21.68824
G1 X131.972 Y149.683 E21.70183
G1 X131.4 Y150.052 E21.71542
G1 X130.788 Y150.351 E21.72901
G1 X130.146 Y150.576 E21.74259
G1 X129.481 Y150.725 E21.75618
G1 X128.55 Y150.8 E21.77482
G1 X106.45 Y150.8 E22.21585
G1 X105.77 Y150.76 E22.22945
G1 X105.1 Y150.641 E22.24303
G1 X104.448 Y150.444 E22.25662
G1 X103.824 Y150.172 E22.2702
G1 X103.236 Y149.828 E22.2838
G1 X102.692 Y149.418 E22.29739
G1 X102.201 Y148.947 E22.31097
G1 X101.767 Y148.422 E22.32456
G1 X101.398 Y147.85 E22.33815
G1 X101.099 Y147.238 E22.35174
G1 X100.874 Y146.596 E22.36532
G1 X100.725 Y145.931 E22.37892
G1 X100.65 Y145 E22.39756
G1 X100.65 Y90 E23.49514
G1 X100.69 Y89.32 E23.50873
G1 X100.809 Y88.65 E23.52231
G1 X101.006 Y87.998 E23.53591
G1 X101.278 Y87.374 E23.54949
G1 X101.622 Y86.786 E23.56308
G1 X102.032 Y86.242 E23.57668
G0 F6000 X102.428 Y86.397
G1 F1200 X102.895 Y85.935 E23.58979
G1 X103.415 Y85.534 E23.60289
G1 X103.979 Y85.198 E23.61599
G1 X104.581 Y84.934 E23.62911
G1 X105.21 Y84.744 E23.64222
G1 X105.857 Y84.633 E23.65532
G1 X106.45 Y84.6 E23.66718
G1 X128.55 Y84.6 E24.10821
G1 X129.206 Y84.64 E24.12132
G1 X129.852 Y84.759 E24.13443
G1 X130.479 Y84.956 E24.14755
G1 X131.077 Y85.228 E24.16066
G1 X131.638 Y85.57 E24.17377
G1 X132.153 Y85.978 E24.18688
G1 X132.615 Y86.445 E24.19999
G1 X133.016 Y86.965 E24.21309
G1 X133.352 Y87.529 E24.22619
G1 X133.616 Y88.131 E24.23931
G1 X133.806 Y88.76 E24.25242
G1 X133.917 Y89.407 E24.26552
G1 X133.95 Y90 E24.27738
G1 X133.95 Y145 E25.37496
G1 X133.91 Y145.656 E25.38808
G1 X133.791 Y146.302 E25.40119
G1 X133.594 Y146.929 E25.4143
G1 X133.322 Y147.527 E25.42741
G1 X132.98 Y148.088 E25.44052
G1 X132.572 Y148.603 E25.45363
G1 X132.105 Y149.065 E25.46674
G1 X131.585 Y149.466 E25.47985
G1 X131.021 Y149.802 E25.49295
G1 X130.419 Y150.066 E25.50607
G1 X129.79 Y150.256 E25.51918
G1 X129.143 Y150.367 E25.53228
G1 X128.55 Y150.4 E25.54413
G1 X106.45 Y150.4 E25.98516
G1 X105.794 Y150.36 E25.99828
G1 X105.148 Y150.241 E26.01139
G1 X104.521 Y150.044 E26.0245
G1 X103.923 Y149.772 E26.03761
G1 X103.362 Y149.43 E26.05072
G1 X102.847 Y149.022 E26.06384
G1 X102.385 Y148.555 E26.07694
G1 X101.984 Y148.035 E26.09005
G1 X101.648 Y147.471 E26.10315
G1 X101.384 Y146.869 E26.11627
G1 X101.194 Y146.24 E26.12938
G1 X101.083 Y145.593 E26.14248
G1 X101.05 Y145 E26.15433
G1 X101.05 Y90 E27.25192
G1 X101.09 Y89.344 E27.26503
G1 X101.209 Y88.698 E27.27814
G1 X101.406 Y88.071 E27.29126
G1 X101.678 Y87.473 E27.30437
G1 X102.02 Y86.912 E27.31748
G1 X102.428 Y86.397 E27.33059
G0 F6000 X102.823 Y86.559
G1 F1200 X103.286 Y86.129 E27.3432
G1 X103.8 Y85.76 E27.35583
G1 X104.356 Y85.46 E27.36844
G1 X104.945 Y85.232 E27.38104
G1 X105.559 Y85.08 E27.39366
G1 X106.45 Y85 E27.41151
G1 X128.55 Y85 E27.85254
G1 X129.181 Y85.04 E27.86516
G1 X129.802 Y85.159 E27.87778
G1 X130.402 Y85.356 E27.89038
G1 X130.974 Y85.627 E27.90301
G1 X131.506 Y85.967 E27.91561
G1 X131.991 Y86.373 E27.92824
G1 X132.421 Y86.836 E27.94085
G1 X132.79 Y87.35 E27.95347
G1 X133.09 Y87.906 E27.96608
G1 X133.318 Y88.495 E27.97868
G1 X133.47 Y89.109 E27.99131
G1 X133.55 Y90 E28.00916
G1 X133.55 Y145 E29.10674
G1 X133.51 Y145.631 E29.11936
G1 X133.391 Y146.252 E29.13198
G1 X133.194 Y146.852 E29.14458
G1 X132.923 Y147.424 E29.15721
G1 X132.583 Y147.956 E29.16981
G1 X132.177 Y148.441 E29.18244
G1 X131.714 Y148.871 E29.19504
G1 X131.2 Y149.24 E29.20767
G1 X130.644 Y149.54 E29.22028
G1 X130.055 Y149.768 E29.23288
G1 X129.441 Y149.92 E29.24551
G1 X128.55 Y150 E29.26336
G1 X106.45 Y150 E29.70439
G1 X105.819 Y149.96 E29.71701
G1 X105.198 Y149.841 E29.72962
G1 X104.598 Y149.644 E29.74223
G1 X104.026 Y149.373 E29.75486
G1 X103.494 Y149.033 E29.76746
G1 X103.009 Y148.627 E29.78008
G1 X102.579 Y148.164 E29.79269
G1 X102.21 Y147.65 E29.80532
G1 X101.91 Y147.094 E29.81792
G1 X101.682 Y146.505 E29.83053
G1 X101.53 Y145.891 E29.84315
G1 X101.45 Y145 E29.861
G1 X101.45 Y90 E30.95859
G1 X101.49 Y89.369 E30.97121
G1 X101.609 Y88.748 E30.98382
G1 X101.806 Y88.148 E30.99643
G1 X102.077 Y87.576 E31.00906
G1 X102.417 Y87.044 E31.02166
G1 X102.823 Y86.559 E31.03428
G0 F6000 X102.815 Y87.181
G1 F1200 X103.217 Y86.728 E31.04637
G1 X103.675 Y86.331 E31.05846
G1 X104.182 Y85.998 E31.07057
G1 X104.728 Y85.734 E31.08267
G1 X105.304 Y85.545 E31.09477
G1 X105.9 Y85.433 E31.10687
G1 X106.45 Y85.4 E31.11786
G1 X128.55 Y85.4 E31.55889
G1 X129.155 Y85.44 E31.57099
G1 X129.749 Y85.559 E31.58308
G1 X130.323 Y85.755 E31.59519
G1 X130.866 Y86.026 E31.6073
G1 X131.369 Y86.365 E31.6194
G1 X131.822 Y86.767 E31.63149
G1 X132.219 Y87.225 E31.64358
G1 X132.552 Y87.732 E31.65569
G1 X132.816 Y88.278 E31.66779
G1 X133.005 Y88.854 E31.67989
G1 X133.117 Y89.45 E31.69199
G1 X133.15 Y90 E31.70299
G1 X133.15 Y145 E32.80057
G1 X133.11 Y145.605 E32.81267
G1 X132.991 Y146.199 E32.82476
G1 X132.795 Y146.773 E32.83687
G1 X132.524 Y147.316 E32.84898
G1 X132.185 Y147.819 E32.86108
G1 X131.783 Y148.272 E32.87317
G1 X131.325 Y148.669 E32.88526
